X:1
T: Cana Verde (Green Sugar-Cane)
M:2/4
L:1/8
A:South of Brazil, state of Rio Grande do Sul
C:Trad
R:Gaucho March
Z:Meletti (jrmeletti@email.com)
K:G
Q:220
BB |: "G"BdcB | "D7"A2cc | "D7"ceed |1 "G"B2BB :|2 "G"B2dd |\
"G"g>fed | "D7"f>ffe | "D7"dcBA | "G"G4 |: "G"zdcB | "D7"A4 | "D7"zeed |\
"G"B4 | "G"zdcB | "D7"A4 | "D7"zeed |\
"G"B2Bc | "G"d>dde | "D7"f>ffe | "D7"dcBA | "G"G4 :||
